svg/u1f372.svg

<svg viewBox="0 0 128 128" xmlns="http://www.w3.org/2000/svg">
  <path d="M23.82,77.13l-7.7-12.07l2.11-8.3l17.81-11.77l24.6-3.02l27.92,3.62L102,50.87 c0,0,10.11,8.75,10.26,10.56c0.15,1.81-2.72,11.32-2.87,11.77s-2.11,10.26-8,12.37c-5.89,2.11-43.76,7.55-44.37,7.24 S23.82,77.13,23.82,77.13z" fill="#2F2F2F"/>
  <path d="M19.75,73.36c0,0,0.23-2.56,1.1-5.11c1.16-3.42,11.88-18.28,41.91-18.28s46.63,14.79,44.97,22.18 c-1.66,7.39-22.33,25.96-22.33,25.96s-36.22-5.58-36.82-5.73C47.97,92.22,19.75,73.36,19.75,73.36z" fill="#F7B03A"/>
  <path d="M33.72,64.56c-0.88,0.19-1.65,0.76-1.57,1.78c0.07,1.02,1.01,1.5,1.85,1.36 c1.31-0.22,1.78-1.15,1.61-2.06C35.44,64.81,34.52,64.38,33.72,64.56z" fill="#FFE36A"/>
  <path d="M32.88,69.31c0.88,1.39-0.45,3.32-3.11,4.16s-4.51,0.42-4.82-1.4c-0.31-1.82,2.06-2.97,3.28-3.39 C29.45,68.26,31.97,67.88,32.88,69.31z" fill="#FFE36A"/>
  <path d="M47.13,59.25c0.06,1.35,1.99,2.1,4.72,1.75s4.19-1.85,4.05-3.21c-0.14-1.36-2.06-1.89-4.26-1.75 S47.06,57.54,47.13,59.25z" fill="#FFE36A"/>
  <path d="M56.5,55.72c0,1.21,1.43,1.61,3.28,1.5c2.2-0.12,2.8-0.98,2.9-1.78c0.1-0.8-1.22-2.06-3.08-1.92 C57.76,53.66,56.5,54.39,56.5,55.72z" fill="#FFE36A"/>
  <path d="M74.84,67.04c-0.14,1.53,0.91,3.21,5.03,2.87s4.93-2.41,4.93-3.14c0-0.73-0.68-2.95-4.61-3.01 C77.82,63.72,75.05,64.73,74.84,67.04z" fill="#FFE36A"/>
  <path d="M94.03,66.17c-0.08,0.78,0.17,2.8,3.88,2.69c3.7-0.1,3.25-1.36,3.25-1.92c0-0.56-1.26-2.62-3.88-2.9 C95.19,63.81,94.17,64.87,94.03,66.17z" fill="#FFE36A"/>
  <path d="M98.78,71.58c-0.07,0.94,1.01,1.68,3.32,1.54c1.96-0.12,2.81-1.15,2.76-1.92 c-0.07-1.12-1.15-1.68-2.83-1.61C100.56,69.65,98.89,70.26,98.78,71.58z" fill="#FFE36A"/>
  <path d="M56.36,80.95c0.04,0.8,1.75,1.75,4.51,1.75c2.76,0,3.28-1.15,3.28-1.99c0-0.84-0.87-1.78-3.42-1.89 C58.45,78.72,56.29,79.59,56.36,80.95z" fill="#FFE36A"/>
  <path d="M27.71,78.19c0.1-0.24,0.22-1.29,0.73-2.17c0.45-0.77,1.25-1.4,2.17-1.4c1.61,0,5.24,0.63,6.08,1.78 c0.61,0.84,0.56,3.95-1.89,4.75C32.35,81.96,27.71,78.19,27.71,78.19z" fill="#D64C12"/>
  <path d="M35.18,62.11c0.05,0.64,1.08,1.92,2.45,1.82c1.36-0.1,5.31-1.92,5.7-2.73 c0.38-0.8-1.22-2.62-2.27-2.62C40.01,58.58,35.08,60.79,35.18,62.11z" fill="#D64C12"/>
  <path d="M75.44,72.88c-0.41,0.83-0.84,3.28,0.94,3.95c1.78,0.66,8.67,0.98,8.67-1.01 c0-1.99-1.96-3.42-2.69-3.53C81.62,72.18,76.07,71.62,75.44,72.88z" fill="#D64C12"/>
  <path d="M83.51,69.63c-1.13,1.75,0.93,3.83,2.45,4.54c3.28,1.54,4.93,1.28,6.08,0.42 c1.96-1.47,1.29-2.94-2.9-4.89C86.15,68.3,84.28,68.44,83.51,69.63z" fill="#D64C12"/>
  <path d="M65.07,59.2c-0.03,1.85,4.11,3.72,7.09,3.81c2.98,0.09,3.76-1.31,3.98-1.97 c0.22-0.66-0.83-2.93-2.01-3.9s-4.2-1.97-5.56-1.79C67.21,55.52,65.11,56.84,65.07,59.2z" fill="#7F594B"/>
  <path d="M40.73,68.92c0.2,1.25,2.11,2.1,5.47,2.32c4.07,0.26,6.65-1.58,6.74-2.36 c0.09-0.79-2.28-2.8-6.43-2.8C41.47,66.07,40.56,67.82,40.73,68.92z" fill="#FE8D00"/>
  <path d="M39.29,76.36c-0.13,2.23,1.44,3.15,3.63,3.06c2.19-0.09,6.3-2.14,7.13-4.51 c0.52-1.47-1.93-4.07-5.52-3.94C42.46,71.05,39.4,74.41,39.29,76.36z" fill="#7F594B"/>
  <path d="M77.81,63.18c0.88,0.48,4.16-0.44,6.74-0.96s5.21-0.79,5.6-1.62s-0.31-4.33-4.16-4.64 c-3.85-0.31-6.04,1.14-6.96,2.14c-0.92,1.01-1.53,2.23-1.58,2.58C77.41,61.04,77.2,62.85,77.81,63.18z" fill="#FE8D00"/>
  <path d="M93.48,69.75c1.25-0.22,0.44-3.98-0.57-5.12c-1.01-1.14-3.85-1.66-5.65-1.44 c-1.79,0.22-3.02,0.7-3.11,1.71c-0.09,1.01,3.11,2.71,4.77,3.46C90.59,69.09,92.73,69.88,93.48,69.75z" fill="#FE8D00"/>
  <path d="M50.5,72.58c1.03,0.36,3.43-0.34,3.46-1.86c0.03-1.52-1.34-2.94-2.69-2.63 c-0.68,0.15-2.1,1.92-2.07,2.6C49.23,71.38,49.97,72.4,50.5,72.58z" fill="#92A51E"/>
  <path d="M55.54,63.46c0.09,1.21,2.78,2.47,3.71,1.67c0.88-0.76,0.37-3.99-0.77-3.99 C57.06,61.14,55.5,62.96,55.54,63.46z" fill="#92A51E"/>
  <path d="M58.08,69.27c0.02,0.43,0.65,2.41,2.2,2.38c1.55-0.03,3.65-1.61,3.65-2.41s-2.44-3.37-3.59-3.34 C59.56,65.92,58.05,68.44,58.08,69.27z" fill="#92A51E"/>
  <path d="M63.18,63.55c-0.18,1.07,0.62,1.18,1.33,1.3c0.71,0.12,1.61,0.34,2.54,1.55 c0.93,1.21,1.84,3.72,1.95,3.99c0.34,0.87,1.89,1.33,3,0.25c1.11-1.08-1.08-5.84-3.03-7.36C67.01,61.76,63.52,61.57,63.18,63.55z" fill="#FBE0BC"/>
  <path d="M62.68,66.09c0.15,0.99,2.41,2.81,3.99,2.01c1.58-0.8-0.12-3.75-0.81-4.07 C65.43,63.82,62.46,64.65,62.68,66.09z" fill="#92A51E"/>
  <path d="M71.87,63.65c-0.71-0.03-1.3,0.22-1.27,1.42c0.03,1.21,0.49,2.57,2.07,2.66 c1.58,0.09,1.73-1.98,1.73-2.23S73.44,63.71,71.87,63.65z" fill="#92A51E"/>
  <path d="M72.33,70.2c-0.59-0.14-3.43,1.08-3.49,2.23c-0.06,1.14,0.99,2.01,2.78,2.23s3,0.22,3.25-0.65 C75.11,73.14,74.09,70.63,72.33,70.2z" fill="#92A51E"/>
  <path d="M85.22,80.61c0.11,0.67,2.47,1.72,3.23,1.51c0.75-0.21,2.6-4.07,5.37-4.86 c2.77-0.8,3.69-0.46,4.07-0.88c0.38-0.42-0.17-2.35-1.09-2.68s-3.4-0.8-6.5,1.01C87.12,76.55,85.09,79.86,85.22,80.61z" fill="#FBE0AF"/>
  <path d="M55.67,71.09c-1.36,0.08-3.19,2.1-3.98,3.94c-1.21,2.79-1.59,5.11-1.26,5.7 c0.34,0.59,2.75,1.41,3.73,0.75c0.25-0.17,0.5-3.27,1.72-5.62c0.83-1.59,2.22-2.22,2.47-2.47S57.89,70.97,55.67,71.09z" fill="#FBE0AF"/>
  <path d="M43.97,56.93c-0.37,0.35-1.38,1.97-1.05,4.82c0.26,2.17,0.56,3.49,1.26,3.81 c0.54,0.25,4.4,0.63,4.74-0.38c0.34-1.01-2.05-3.81-2.31-4.32s-0.38-3.44-0.42-3.81C46.15,56.67,44.56,56.38,43.97,56.93z" fill="#FBE0AF"/>
  <path d="M122.67,56.61c-1.81-3.62-3.77-4.98-5.43-4.98s-7.39,2.72-7.39,2.72S97,40.55,64.41,40.08 c-31.54-0.46-44.95,12.59-44.95,12.59s-4.54-3.46-8.92-3.01C6.17,50.12,2.4,61.59,4.36,64.91c1.96,3.32,4.83,3.17,7.09,4.38 c2.26,1.21,4.38,2.57,4.83,3.32c0.45,0.75,1.81,17.51,6.04,25.05c4.23,7.55,12.22,17.66,41.5,18.26S101,104.7,104.56,97.96 c4.23-8,6.19-22.79,6.19-22.79s3.02-2.72,6.34-4.07c3.67-1.5,5.28-1.81,6.34-3.32C124.48,66.26,124.48,60.23,122.67,56.61z M64.87,84.83c-31.54-0.31-46.79-10.27-46.33-21.58c0.3-7.39,15.09-19.62,44.07-19.32c29.29,0.31,47.54,10.87,47.39,20.67 C109.84,74.41,95.81,85.13,64.87,84.83z" fill="#6A6E70"/>
  <path d="M63.71,57.25c3.19-0.34,1.74-5.71,4.36-10.89c5.99-11.87,17.76-13.07,17.43-23.2 C85.14,12.08,67.96,6.7,62.73,10.95c-1.68,1.37,7.95,2.94,6.43,9.26c-1.53,6.32-13.18,6.75-16.01,16.88 C49.78,49.11,61.64,57.46,63.71,57.25z" opacity="0.6" fill="#EAEAEA"/>
</svg>

<svg viewBox="0 0 128 128" xmlns="http://www.w3.org/2000/svg">
  <defs/>
  <path d="M23.82,77.13 L16.12,65.06 L18.23,56.76 L36.04,44.99 L60.64,41.97 L88.56,45.59 L102,50.87 C102,50.87 112.11,59.62 112.26,61.43 C112.41,63.24 109.54,72.75 109.39,73.2 C109.24,73.65 107.28,83.46 101.39,85.57 C95.5,87.68 57.63,93.12 57.02,92.81 C56.41,92.5 23.82,77.13 23.82,77.13 Z" fill="#2F2F2F"/>
  <path d="M19.75,73.36 C19.75,73.36 19.98,70.8 20.85,68.25 C22.01,64.83 32.73,49.97 62.76,49.97 C92.79,49.97 109.39,64.76 107.73,72.15 C106.07,79.54 85.4,98.11 85.4,98.11 C85.4,98.11 49.18,92.53 48.58,92.38 C47.97,92.22 19.75,73.36 19.75,73.36 Z" fill="#F7B03A"/>
  <path d="M33.72,64.56 C32.84,64.75 32.07,65.32 32.15,66.34 C32.22,67.36 33.16,67.84 34,67.7 C35.31,67.48 35.78,66.55 35.61,65.64 C35.44,64.81 34.52,64.38 33.72,64.56 Z" fill="#FFE36A"/>
  <path d="M32.88,69.31 C33.76,70.7 32.43,72.63 29.77,73.47 C27.11,74.31 25.26,73.89 24.95,72.07 C24.64,70.25 27.01,69.1 28.23,68.68 C29.45,68.26 31.97,67.88 32.88,69.31 Z" fill="#FFE36A"/>
  <path d="M47.13,59.25 C47.19,60.6 49.12,61.35 51.85,61 C54.58,60.65 56.04,59.15 55.9,57.79 C55.76,56.43 53.84,55.9 51.64,56.04 C49.44,56.18 47.06,57.54 47.13,59.25 Z" fill="#FFE36A"/>
  <path d="M56.5,55.72 C56.5,56.93 57.93,57.33 59.78,57.22 C61.98,57.1 62.58,56.24 62.68,55.44 C62.78,54.64 61.46,53.38 59.6,53.52 C57.76,53.66 56.5,54.39 56.5,55.72 Z" fill="#FFE36A"/>
  <path d="M74.84,67.04 C74.7,68.57 75.75,70.25 79.87,69.91 C83.99,69.57 84.8,67.5 84.8,66.77 C84.8,66.04 84.12,63.82 80.19,63.76 C77.82,63.72 75.05,64.73 74.84,67.04 Z" fill="#FFE36A"/>
  <path d="M94.03,66.17 C93.95,66.95 94.2,68.97 97.91,68.86 C101.61,68.76 101.16,67.5 101.16,66.94 C101.16,66.38 99.9,64.32 97.28,64.04 C95.19,63.81 94.17,64.87 94.03,66.17 Z" fill="#FFE36A"/>
  <path d="M98.78,71.58 C98.71,72.52 99.79,73.26 102.1,73.12 C104.06,73 104.91,71.97 104.86,71.2 C104.79,70.08 103.71,69.52 102.03,69.59 C100.56,69.65 98.89,70.26 98.78,71.58 Z" fill="#FFE36A"/>
  <path d="M56.36,80.95 C56.4,81.75 58.11,82.7 60.87,82.7 C63.63,82.7 64.15,81.55 64.15,80.71 C64.15,79.87 63.28,78.93 60.73,78.82 C58.45,78.72 56.29,79.59 56.36,80.95 Z" fill="#FFE36A"/>
  <path d="M27.71,78.19 C27.81,77.95 27.93,76.9 28.44,76.02 C28.89,75.25 29.69,74.62 30.61,74.62 C32.22,74.62 35.85,75.25 36.69,76.4 C37.3,77.24 37.25,80.35 34.8,81.15 C32.35,81.96 27.71,78.19 27.71,78.19 Z" fill="#D64C12"/>
  <path d="M35.18,62.11 C35.23,62.75 36.26,64.03 37.63,63.93 C38.99,63.83 42.94,62.01 43.33,61.2 C43.71,60.4 42.11,58.58 41.06,58.58 C40.01,58.58 35.08,60.79 35.18,62.11 Z" fill="#D64C12"/>
  <path d="M75.44,72.88 C75.03,73.71 74.6,76.16 76.38,76.83 C78.16,77.49 85.05,77.81 85.05,75.82 C85.05,73.83 83.09,72.4 82.36,72.29 C81.62,72.18 76.07,71.62 75.44,72.88 Z" fill="#D64C12"/>
  <path d="M83.51,69.63 C82.38,71.38 84.44,73.46 85.96,74.17 C89.24,75.71 90.89,75.45 92.04,74.59 C94,73.12 93.33,71.65 89.14,69.7 C86.15,68.3 84.28,68.44 83.51,69.63 Z" fill="#D64C12"/>
  <path d="M65.07,59.2 C65.04,61.05 69.18,62.92 72.16,63.01 C75.14,63.1 75.92,61.7 76.14,61.04 C76.36,60.38 75.31,58.11 74.13,57.14 C72.95,56.17 69.93,55.17 68.57,55.35 C67.21,55.52 65.11,56.84 65.07,59.2 Z" fill="#7F594B"/>
  <path d="M40.73,68.92 C40.93,70.17 42.84,71.02 46.2,71.24 C50.27,71.5 52.85,69.66 52.94,68.88 C53.03,68.09 50.66,66.08 46.51,66.08 C41.47,66.07 40.56,67.82 40.73,68.92 Z" fill="#FE8D00"/>
  <path d="M39.29,76.36 C39.16,78.59 40.73,79.51 42.92,79.42 C45.11,79.33 49.22,77.28 50.05,74.91 C50.57,73.44 48.12,70.84 44.53,70.97 C42.46,71.05 39.4,74.41 39.29,76.36 Z" fill="#7F594B"/>
  <path d="M77.81,63.18 C78.69,63.66 81.97,62.74 84.55,62.22 C87.13,61.7 89.76,61.43 90.15,60.6 C90.54,59.77 89.84,56.27 85.99,55.96 C82.14,55.65 79.95,57.1 79.03,58.1 C78.11,59.11 77.5,60.33 77.45,60.68 C77.41,61.04 77.2,62.85 77.81,63.18 Z" fill="#FE8D00"/>
  <path d="M93.48,69.75 C94.73,69.53 93.92,65.77 92.91,64.63 C91.9,63.49 89.06,62.97 87.26,63.19 C85.47,63.41 84.24,63.89 84.15,64.9 C84.06,65.91 87.26,67.61 88.92,68.36 C90.59,69.09 92.73,69.88 93.48,69.75 Z" fill="#FE8D00"/>
  <path d="M50.5,72.58 C51.53,72.94 53.93,72.24 53.96,70.72 C53.99,69.2 52.62,67.78 51.27,68.09 C50.59,68.24 49.17,70.01 49.2,70.69 C49.23,71.38 49.97,72.4 50.5,72.58 Z" fill="#92A51E"/>
  <path d="M55.54,63.46 C55.63,64.67 58.32,65.93 59.25,65.13 C60.13,64.37 59.62,61.14 58.48,61.14 C57.06,61.14 55.5,62.96 55.54,63.46 Z" fill="#92A51E"/>
  <path d="M58.08,69.27 C58.1,69.7 58.73,71.68 60.28,71.65 C61.83,71.62 63.93,70.04 63.93,69.24 C63.93,68.44 61.49,65.87 60.34,65.9 C59.56,65.92 58.05,68.44 58.08,69.27 Z" fill="#92A51E"/>
  <path d="M63.18,63.55 C63,64.62 63.8,64.73 64.51,64.85 C65.22,64.97 66.12,65.19 67.05,66.4 C67.98,67.61 68.89,70.12 69,70.39 C69.34,71.26 70.89,71.72 72,70.64 C73.11,69.56 70.92,64.8 68.97,63.28 C67.01,61.76 63.52,61.57 63.18,63.55 Z" fill="#FBE0BC"/>
  <path d="M62.68,66.09 C62.83,67.08 65.09,68.9 66.67,68.1 C68.25,67.3 66.55,64.35 65.86,64.03 C65.43,63.82 62.46,64.65 62.68,66.09 Z" fill="#92A51E"/>
  <path d="M71.87,63.65 C71.16,63.62 70.57,63.87 70.6,65.07 C70.63,66.28 71.09,67.64 72.67,67.73 C74.25,67.82 74.4,65.75 74.4,65.5 C74.4,65.25 73.44,63.71 71.87,63.65 Z" fill="#92A51E"/>
  <path d="M72.33,70.2 C71.74,70.06 68.9,71.28 68.84,72.43 C68.78,73.57 69.83,74.44 71.62,74.66 C73.41,74.88 74.62,74.88 74.87,74.01 C75.11,73.14 74.09,70.63 72.33,70.2 Z" fill="#92A51E"/>
  <path d="M85.22,80.61 C85.33,81.28 87.69,82.33 88.45,82.12 C89.2,81.91 91.05,78.05 93.82,77.26 C96.59,76.46 97.51,76.8 97.89,76.38 C98.27,75.96 97.72,74.03 96.8,73.7 C95.88,73.37 93.4,72.9 90.3,74.71 C87.12,76.55 85.09,79.86 85.22,80.61 Z" fill="#FBE0AF"/>
  <path d="M55.67,71.09 C54.31,71.17 52.48,73.19 51.69,75.03 C50.48,77.82 50.1,80.14 50.43,80.73 C50.77,81.32 53.18,82.14 54.16,81.48 C54.41,81.31 54.66,78.21 55.88,75.86 C56.71,74.27 58.1,73.64 58.35,73.39 C58.6,73.14 57.89,70.97 55.67,71.09 Z" fill="#FBE0AF"/>
  <path d="M43.97,56.93 C43.6,57.28 42.59,58.9 42.92,61.75 C43.18,63.92 43.48,65.24 44.18,65.56 C44.72,65.81 48.58,66.19 48.92,65.18 C49.26,64.17 46.87,61.37 46.61,60.86 C46.35,60.35 46.23,57.42 46.19,57.05 C46.15,56.67 44.56,56.38 43.97,56.93 Z" fill="#FBE0AF"/>
  <path d="M122.67,56.61 C120.86,52.99 118.9,51.63 117.24,51.63 C115.58,51.63 109.85,54.35 109.85,54.35 C109.85,54.35 97,40.55 64.41,40.08 C32.87,39.62 19.46,52.67 19.46,52.67 C19.46,52.67 14.92,49.21 10.54,49.66 C6.17,50.12 2.4,61.59 4.36,64.91 C6.32,68.23 9.19,68.08 11.45,69.29 C13.71,70.5 15.83,71.86 16.28,72.61 C16.73,73.36 18.09,90.12 22.32,97.66 C26.55,105.21 34.54,115.32 63.82,115.92 C93.1,116.52 101,104.7 104.56,97.96 C108.79,89.96 110.75,75.17 110.75,75.17 C110.75,75.17 113.77,72.45 117.09,71.1 C120.76,69.6 122.37,69.29 123.43,67.78 C124.48,66.26 124.48,60.23 122.67,56.61 Z M64.87,84.83 C33.33,84.52 18.08,74.56 18.54,63.25 C18.84,55.86 33.63,43.63 62.61,43.93 C91.9,44.24 110.15,54.8 110,64.6 C109.84,74.41 95.81,85.13 64.87,84.83 Z" fill="#6A6E70"/>
  <path d="M63.71,57.25 C66.9,56.91 65.45,51.54 68.07,46.36 C74.06,34.49 85.83,33.29 85.5,23.16 C85.14,12.08 67.96,6.7 62.73,10.95 C61.05,12.32 70.68,13.89 69.16,20.21 C67.63,26.53 55.98,26.96 53.15,37.09 C49.78,49.11 61.64,57.46 63.71,57.25 Z" fill="#EAEAEA" opacity="0.6"/>
</svg>
